SVG_Azure_All/App Service Log.svg

<?xml version="1.0" encoding="UTF-8" standalone="no"?>
<!-- Generated by Microsoft Visio, SVG Export App Service Log.svg Page-1 -->

<svg
   xmlns:dc="http://purl.org/dc/elements/1.1/"
   xmlns:cc="http://creativecommons.org/ns#"
   xmlns:rdf="http://www.w3.org/1999/02/22-rdf-syntax-ns#"
   xmlns:svg="http://www.w3.org/2000/svg"
   xmlns="http://www.w3.org/2000/svg"
   xmlns:sodipodi="http://sodipodi.sourceforge.net/DTD/sodipodi-0.dtd"
   xmlns:inkscape="http://www.inkscape.org/namespaces/inkscape"
   width="0.66924983in"
   height="0.78754538in"
   viewBox="0 0 48.186096 56.70313"
   xml:space="preserve"
   class="st4"
   version="1.1"
   id="svg40"
   sodipodi:docname="App Service Log.svg"
   style="font-size:12px;overflow:visible;color-interpolation-filters:sRGB;fill:none;fill-rule:evenodd;stroke-linecap:square;stroke-miterlimit:3"
   inkscape:version="0.92.5 (2060ec1f9f, 2020-04-08)"><metadata
   id="metadata44"><rdf:RDF><cc:Work
       rdf:about=""><dc:format>image/svg+xml</dc:format><dc:type
         rdf:resource="http://purl.org/dc/dcmitype/StillImage" /></cc:Work></rdf:RDF></metadata><sodipodi:namedview
   pagecolor="#ffffff"
   bordercolor="#666666"
   borderopacity="1"
   objecttolerance="10"
   gridtolerance="10"
   guidetolerance="10"
   inkscape:pageopacity="0"
   inkscape:pageshadow="2"
   inkscape:window-width="640"
   inkscape:window-height="480"
   id="namedview42"
   showgrid="false"
   inkscape:zoom="1.3409262"
   inkscape:cx="32.125929"
   inkscape:cy="37.806585"
   inkscape:window-x="0"
   inkscape:window-y="0"
   inkscape:window-maximized="0"
   inkscape:current-layer="svg40" />
	<style
   type="text/css"
   id="style2">
	<![CDATA[
		.st1 {fill:#a33a85;stroke:none;stroke-linecap:butt;stroke-width:37.646}
		.st2 {fill:#ffffff;stroke:none;stroke-linecap:butt;stroke-width:37.646}
		.st3 {fill:url(#grad0-10);stroke:none;stroke-linecap:butt;stroke-width:37.646}
		.st4 {fill:none;fill-rule:evenodd;font-size:12px;overflow:visible;stroke-linecap:square;stroke-miterlimit:3}
	]]>
	</style>

	<defs
   id="Patterns_And_Gradients">
		<linearGradient
   id="grad0-10"
   x1="0"
   y1="73.125463"
   x2="46.618507"
   y2="73.125463"
   gradientTransform="scale(0.90715126,1.102352)"
   gradientUnits="userSpaceOnUse">
			<stop
   offset="0"
   stop-color="#59285f"
   stop-opacity="1"
   id="stop4" />
			<stop
   offset="1"
   stop-color="#a33a85"
   stop-opacity="1"
   id="stop6" />
		</linearGradient>
	</defs>
	<g
   id="g38"
   transform="translate(-37.646,-37.650917)">
		<title
   id="title10">Page-1</title>
		<g
   id="group9997-1"
   transform="translate(37.646,-37.646)">
			<title
   id="title12">App Service Log</title>
			<g
   id="group9998-2">
				<title
   id="title14">g10</title>
				<g
   id="shape9999-3"
   transform="translate(0,-0.280315)">
					<title
   id="title16">path2</title>
					<path
   d="m 0.07,80.96 4.11,-4.69 a 1.99744,1.95591 0 0 1 1.53,-0.68 h 39.46 a 2.75331,2.69606 0 0 1 3.01,2.41 2.62144,2.56693 0 0 1 0,0.35 v 48.26 a 1.92989,1.88976 0 0 1 -0.68,1.43 L 43.08,132 H 2.75 L 0,130.9 Z"
   class="st1"
   id="path18"
   inkscape:connector-curvature="0"
   style="fill:#a33a85;stroke:none;stroke-width:37.64599991;stroke-linecap:butt" />
				</g>
				<g
   id="shape10000-5"
   transform="translate(3.39661,-2.3622)">
					<title
   id="title21">path4</title>
					<path
   d="m 0,83.02 2.52,-2.81 a 1.70796,1.67244 0 0 1 1.19,-0.6 h 37.01 a 1.76585,1.72913 0 0 1 1.77,1.73 v 45.86 a 1.7562,1.71969 0 0 1 -0.58,1.3 l -3.94,3.5 z"
   class="st2"
   id="path23"
   inkscape:connector-curvature="0"
   style="fill:#ffffff;stroke:none;stroke-width:37.64599991;stroke-linecap:butt" />
				</g>
				<g
   id="shape10001-7"
   transform="translate(0.0900617)">
					<title
   id="title26">path6</title>
					<path
   d="M 41,80.61 H 0.21 A 0.205855,0.201575 -180 0 0 0.004145,80.811575 L 0,130.74 A 1.32841,1.30079 -180 0 0 1.33,132 H 41 a 1.2866,1.25984 -180 0 0 1.29,-1.26 V 81.92 A 1.32841,1.30079 -180 0 0 41,80.61 Z"
   class="st3"
   id="path28"
   inkscape:connector-curvature="0"
   style="fill:url(#grad0-10);stroke:none;stroke-width:37.64599991;stroke-linecap:butt" />
				</g>
				<g
   id="shape10002-11"
   transform="translate(6.24945,-13.2346)">
					<title
   id="title31">path8</title>
					<path
   d="M 27.05,107.54 A 15.5935,15.2693 -180 0 0 5.21,104.6 l -0.19,0.18 a 15.5871,15.263 -180 0 0 9.7,27.22 15.4391,15.1181 -180 0 0 9.52,-3.21 15.6611,15.3354 -180 0 0 2.81,-21.25 z M 14.6,103.48 a 13.7473,13.4614 0 0 1 1.88,0.12 13.4514,13.1717 0 0 1 7.43,3.52 c -0.22,-0.18 -0.44,-0.37 -0.68,-0.54 a 29.032,28.4283 -180 0 0 -8.04,1.73 15.021,14.7087 -180 0 0 -1.55,0.76 37.5493,36.7685 0 0 1 -3.37,-4.9 13.461,13.1811 0 0 1 4.33,-0.69 z M 4.09,124.97 c -0.04,-0.04 -0.08,-0.06 -0.1,-0.1 a 13.5704,13.2882 0 0 1 0.03,-16.17 38.511,37.7102 -180 0 0 0.89,4.15 4.36156,4.27087 -180 0 0 0.46,7.24 24.9793,24.4598 -180 0 0 -1.28,4.88 z m 2.35,-18.79 a 13.6218,13.3386 0 0 1 2.51,-1.44 41.0295,40.1764 -180 0 0 3.45,5.08 15.0853,14.7717 -180 0 0 -3.32,2.52 4.36799,4.27717 -180 0 0 -1.6,-0.31 4.02061,3.93701 -180 0 0 -0.53,0.05 41.3994,40.5386 0 0 1 -1.2,-5.23 c 0.23,-0.23 0.43,-0.48 0.69,-0.67 z m 16.55,21.04 a 13.5093,13.2283 0 0 1 -16.98,-0.32 35.2849,34.5512 0 0 1 1.8,-6.3 4.38407,4.29291 -180 0 0 0.69,-0.1 c 0.64,0.65 1.33,1.29 2.05,1.88 a 12.5733,12.3118 -180 0 0 2.91,1.72 2.93022,2.86929 -180 0 0 5.21,1.66 25.8445,25.3071 -180 0 0 5.55,0.31 12.5926,12.3307 0 0 1 -1.23,1.15 z m 2.87,-3.13 a 14.3037,14.0063 0 0 1 -2.5,0.08 20.5662,20.1386 0 0 1 -3.97,-0.4 2.97525,2.91339 -180 0 0 -5.12,-1.94 14.1911,13.8961 0 0 1 -3.55,-2.64 4.34869,4.25827 -180 0 0 0.41,-5.24 13.8309,13.5433 0 0 1 2.81,-2.16 34.677,33.9559 -180 0 0 5.69,4.81 2.99455,2.93228 -180 0 0 -0.13,0.63 3.0814,3.01732 -180 0 0 3.08,3.02 3.04601,2.98268 -180 0 0 2.02,-0.78 c 0.15,0.07 0.28,0.13 0.52,0.25 0,0 0.41,0.19 0.62,0.32 0.45,0.29 1.66,0.87 1.75,0.91 a 13.4192,13.1402 0 0 1 -1.63,3.14 z m 1.27,-5.13 a 9.24097,9.04882 -180 0 0 -0.62,-0.32 l -0.62,-0.31 -0.41,-0.26 a 3.03958,2.97638 -180 0 0 -4.99,-3.03 43.1009,42.2047 0 0 1 -4.85,-4.16 24.3553,23.8488 0 0 1 9.77,-2.18 l 0.03,0.03 a 13.5093,13.2283 0 0 1 2.41,10.63 c -0.19,-0.14 -0.58,-0.31 -0.72,-0.4 z"
   class="st2"
   id="path33"
   inkscape:connector-curvature="0"
   style="fill:#ffffff;stroke:none;stroke-width:37.64599991;stroke-linecap:butt" />
				</g>
			</g>
		</g>
	</g>
</svg>

<?xml version="1.0" encoding="UTF-8" standalone="no"?>
<!DOCTYPE svg PUBLIC "-//W3C//DTD SVG 1.1//EN" "http://www.w3.org/Graphics/SVG/1.1/DTD/svg11.dtd">
<!-- Generated by Microsoft Visio, SVG Export App Service Log.svg Page-1 -->
<svg xmlns="http://www.w3.org/2000/svg" xmlns:xlink="http://www.w3.org/1999/xlink" xmlns:ev="http://www.w3.org/2001/xml-events"
		width="1.71501in" height="1.83331in" viewBox="0 0 123.481 131.998" xml:space="preserve" color-interpolation-filters="sRGB"
		class="st4">
	<style type="text/css">
	<![CDATA[
		.st1 {fill:#a33a85;stroke:none;stroke-linecap:butt;stroke-width:37.646}
		.st2 {fill:#ffffff;stroke:none;stroke-linecap:butt;stroke-width:37.646}
		.st3 {fill:url(#grad0-10);stroke:none;stroke-linecap:butt;stroke-width:37.646}
		.st4 {fill:none;fill-rule:evenodd;font-size:12px;overflow:visible;stroke-linecap:square;stroke-miterlimit:3}
	]]>
	</style>

	<defs id="Patterns_And_Gradients">
		<linearGradient id="grad0-10" x1="0" y1="0" x2="1" y2="0" gradientTransform="rotate(-90 0.5 0.5)">
			<stop offset="0" stop-color="#59285f" stop-opacity="1"/>
			<stop offset="1" stop-color="#a33a85" stop-opacity="1"/>
		</linearGradient>
	</defs>
	<g>
		<title>Page-1</title>
		<g id="group9792-1" transform="translate(37.646,-37.646)">
			<title>App Service Log</title>
			<g id="group9793-2">
				<title>g10</title>
				<g id="shape9794-3" transform="translate(0,-0.280315)">
					<title>path2</title>
					<path d="M0.07 80.96 L4.18 76.27 A1.99744 1.95591 0 0 1 5.71 75.59 L45.17 75.59 A2.75331 2.69606 0 0 1 48.18
								 78 A2.62144 2.56693 0 0 1 48.18 78.35 L48.18 126.61 A1.92989 1.88976 0 0 1 47.5 128.04 L43.08 132
								 L2.75 132 L0 130.9 L0.07 80.96 Z" class="st1"/>
				</g>
				<g id="shape9795-5" transform="translate(3.39661,-2.3622)">
					<title>path4</title>
					<path d="M0 83.02 L2.52 80.21 A1.70796 1.67244 0 0 1 3.71 79.61 L40.72 79.61 A1.76585 1.72913 0 0 1 42.49 81.34
								 L42.49 127.2 A1.7562 1.71969 0 0 1 41.91 128.5 L37.97 132 L0 83.02 Z" class="st2"/>
				</g>
				<g id="shape9796-7" transform="translate(0.0900617,0)">
					<title>path6</title>
					<path d="M41 80.61 L0.21 80.61 a0.205855 0.201575 -180 0 0 -0.205855 0.201575 L0 130.74 A1.32841 1.30079 -180
								 0 0 1.33 132 L41 132 A1.2866 1.25984 -180 0 0 42.29 130.74 L42.29 81.92 A1.32841 1.30079 -180 0
								 0 41 80.61 Z" class="st3"/>
				</g>
				<g id="shape9797-11" transform="translate(6.24945,-13.2346)">
					<title>path8</title>
					<path d="M27.05 107.54 A15.5935 15.2693 -180 0 0 5.21 104.6 L5.02 104.78 A15.5871 15.263 -180 0 0 14.72 132 A15.4391
								 15.1181 -180 0 0 24.24 128.79 A15.6611 15.3354 -180 0 0 27.05 107.54 ZM14.6 103.48 A13.7473 13.4614
								 0 0 1 16.48 103.6 A13.4514 13.1717 0 0 1 23.91 107.12 C23.69 106.94 23.47 106.75 23.23 106.58 A29.032
								 28.4283 -180 0 0 15.19 108.31 A15.021 14.7087 -180 0 0 13.64 109.07 A37.5493 36.7685 0 0 1 10.27
								 104.17 A13.461 13.1811 0 0 1 14.6 103.48 ZM4.09 124.97 C4.05 124.93 4.01 124.91 3.99 124.87 A13.5704
								 13.2882 0 0 1 4.02 108.7 A38.511 37.7102 -180 0 0 4.91 112.85 A4.36156 4.27087 -180 0 0 5.37 120.09
								 A24.9793 24.4598 -180 0 0 4.09 124.97 ZM6.44 106.18 A13.6218 13.3386 0 0 1 8.95 104.74 A41.0295
								 40.1764 -180 0 0 12.4 109.82 A15.0853 14.7717 -180 0 0 9.08 112.34 A4.36799 4.27717 -180 0 0 7.48
								 112.03 A4.02061 3.93701 -180 0 0 6.95 112.08 A41.3994 40.5386 0 0 1 5.75 106.85 C5.98 106.62 6.18
								 106.37 6.44 106.18 ZM22.99 127.22 A13.5093 13.2283 0 0 1 6.01 126.9 A35.2849 34.5512 0 0 1 7.81
								 120.6 A4.38407 4.29291 -180 0 0 8.5 120.5 C9.14 121.15 9.83 121.79 10.55 122.38 A12.5733 12.3118
								 -180 0 0 13.46 124.1 A2.93022 2.86929 -180 0 0 18.67 125.76 A25.8445 25.3071 -180 0 0 24.22 126.07
								 A12.5926 12.3307 0 0 1 22.99 127.22 ZM25.86 124.09 A14.3037 14.0063 0 0 1 23.36 124.17 A20.5662
								 20.1386 0 0 1 19.39 123.77 A2.97525 2.91339 -180 0 0 14.27 121.83 A14.1911 13.8961 0 0 1 10.72 119.19
								 A4.34869 4.25827 -180 0 0 11.13 113.95 A13.8309 13.5433 0 0 1 13.94 111.79 A34.677 33.9559 -180
								 0 0 19.63 116.6 A2.99455 2.93228 -180 0 0 19.5 117.23 A3.0814 3.01732 -180 0 0 22.58 120.25 A3.04601
								 2.98268 -180 0 0 24.6 119.47 C24.75 119.54 24.88 119.6 25.12 119.72 C25.12 119.72 25.53 119.91 25.74
								 120.04 C26.19 120.33 27.4 120.91 27.49 120.95 A13.4192 13.1402 0 0 1 25.86 124.09 ZM27.13 118.96
								 A9.24097 9.04882 -180 0 0 26.51 118.64 L25.89 118.33 L25.48 118.07 A3.03958 2.97638 -180 0 0 20.49
								 115.04 A43.1009 42.2047 0 0 1 15.64 110.88 A24.3553 23.8488 0 0 1 25.41 108.7 L25.44 108.73 A13.5093
								 13.2283 0 0 1 27.85 119.36 C27.66 119.22 27.27 119.05 27.13 118.96 Z" class="st2"/>
				</g>
			</g>
		</g>
	</g>
</svg>
